{ "compressionlevel":-1,
 "height":8,
 "infinite":false,
 "layers":[
        {
         "data":[0, 268, 268, 268, 268, 268, 268, 268, 268, 268,
            268, 268, 268, 268, 268, 268, 268, 268, 268, 268,
            268, 268, 268, 268, 268, 268, 268, 268, 268, 268,
            268, 268, 268, 268, 268, 268, 268, 268, 268, 268,
            268, 268, 268, 268, 268, 268, 268, 268, 268, 268,
            268, 268, 268, 268, 268, 268, 268, 268, 268, 268,
            268, 268, 268, 268, 268, 268, 268, 268, 268, 268,
            268, 268, 268, 268, 268, 268, 268, 268, 268, 268],
         "height":8,
         "id":1,
         "name":"Ground",
         "opacity":1,
         "type":"tilelayer",
         "visible":true,
         "width":10,
         "x":0,
         "y":0
        }, 
        {
         "data":[526, 415, 415, 415, 416, 415, 416, 416, 415, 417,
            427, 0, 0, 0, 0, 0, 0, 0, 0, 430,
            427, 0, 0, 0, 0, 0, 0, 0, 0, 426,
            427, 0, 0, 0, 0, 0, 0, 0, 0, 430,
            427, 0, 0, 0, 0, 0, 0, 0, 0, 426,
            427, 0, 0, 0, 0, 0, 0, 0, 0, 430,
            427, 0, 0, 0, 0, 0, 0, 0, 0, 430,
            448, 441, 441, 443, 0, 0, 440, 441, 442, 540],
         "height":8,
         "id":2,
         "name":"Walls",
         "opacity":1,
         "type":"tilelayer",
         "visible":true,
         "width":10,
         "x":0,
         "y":0
        }, 
        {
         "data":[0, 0, 0, 774, 0, 0, 731, 732, 0, 0,
            0, 0, 0, 0, 0, 0, 0, 0, 0, 0,
            0, 0, 0, 0, 0, 0, 0, 0, 0, 0,
            0, 0, 0, 0, 0, 0, 0, 0, 0, 0,
            0, 0, 0, 0, 0, 0, 0, 0, 0, 0,
            0, 0, 0, 0, 0, 0, 0, 0, 0, 0,
            0, 0, 0, 0, 0, 0, 0, 0, 0, 0,
            0, 0, 0, 0, 0, 0, 0, 0, 0, 0],
         "height":8,
         "id":3,
         "name":"Decor",
         "opacity":1,
         "type":"tilelayer",
         "visible":true,
         "width":10,
         "x":0,
         "y":0
        }, 
        {
         "data":[0, 0, 0, 0, 0, 0, 0, 0, 0, 0,
            0, 0, 0, 0, 0, 0, 0, 0, 0, 0,
            0, 0, 0, 0, 0, 0, 757, 0, 0, 0,
            0, 0, 0, 0, 0, 759, 0, 0, 0, 0,
            0, 0, 0, 0, 0, 0, 0, 0, 0, 0,
            0, 0, 0, 0, 0, 0, 0, 0, 0, 0,
            0, 0, 0, 0, 0, 0, 0, 0, 0, 0,
            0, 0, 0, 0, 0, 0, 0, 0, 0, 0],
         "height":8,
         "id":4,
         "name":"Loot",
         "opacity":1,
         "type":"tilelayer",
         "visible":true,
         "width":10,
         "x":0,
         "y":0
        }],
 "nextlayerid":5,
 "nextobjectid":1,
 "orientation":"orthogonal",
 "renderorder":"right-down",
 "tiledversion":"1.12.1",
 "tileheight":16,
 "tilesets":[
        {
         "firstgid":1,
         "source":"Sprites\/Ground_Green.tsx"
        }, 
        {
         "firstgid":409,
         "source":"Sprites\/Predio_Escuro.tsx"
        }, 
        {
         "firstgid":578,
         "source":"Sprites\/Objetos.tsx"
        }],
 "tilewidth":16,
 "type":"map",
 "version":"1.10",
 "width":10
}